X:1
T:Where He Leads I’ll Follow
T:William Augustine Ogden, 1885
T:Where He Leads I’ll Follow
T:Public Domain
T:Public Domain
C:William Augustine Ogden, 1885
Z:Public Domain
%%score ( 1 2 ) ( 3 4 )
L:1/8
M:4/4
K:E
V:1 treble 
V:2 treble 
V:3 bass 
V:4 bass 
V:1
 E2 [EG]>[FA] [GB][GB] [GB]2 | [Ac]2 [EA]>[Ac] [GB]4 | [GB][FA][FA][FA] | [FA][EG][EG][EG] | %4
w: 1.~Sweet are the prom- is- es,|is the word, Dear-|er far than an-|y mess- age man|
w: 2.~Sweet is the ten- der love|sus hath shown, Sweet-|er far than an-|y love that mor-|
w: 3.~List to His lov- ing words,|un- to Me”; Wear-|y, heav- y lad-|en, there is sweet|
 [DB]2 [DF]>[EG] [DF]4 | E2 [EG]>[FA] [GB][GB] [GB]2 | [Ac]2 [EA]>[Ac] [GB]4 | %7
w: ev- er heard; Pure|was the mind of Christ, sin-|I see; He the|
w: tals have known; Kind|to the err- ing one, faith-|is He; He the|
w: rest for thee; Trust|in His prom- is- es, faith-|and sure; Lean up-|
 [GB][FA][FA][FA] [FA][EG][EG][EG] | [DB]2 [DF]>[DG] E4 |:"^Refrain" (C>C CC [CE])[CE]Ac | %10
w: great ex- am- ple is, and pat- tern|for me. * *||
w: great ex- am- ple is, and pat- tern|for me. Where He|I’ll * * * * fol- low, Fol-|
w: on the Sav- ior, and thy soul is|se- cure. * *||
 (E>E EE) (EE (3EGA) | (DD D>D B)F G>A | (EE E>E E2 (3AGF) :| [DB][DF][EG][FA] [EG]2 [DF]2 | %14
w: ||||
w: * * * * all * * * *|Fol- * * * * low Je- sus|||
w: ||||
 E6 z2 |] %15
w: |
w: |
w: |
V:2
 E2 x6 | x8 | x4 | x4 | x8 | E2 x6 | x8 | x8 | x4 E4 |: E4- x4 | B4 G2 x2 | B4- D2 D2 | G6 x2 :| %13
w: kind|||||less||||||||
w: Je-|||||ful|||leads|low|the way.|ev- ’ry day.||
w: “Come|||||ful||||||||
 x8 | E6 x2 |] %15
w: ||
w: ||
w: ||
V:3
 [E,G,]2 [E,B,]>[E,B,] [E,E][E,E] [E,E]2 | [A,,E]2 [A,,C]>[A,,E] [E,E]4 | %2
w: ~ ~ ~ ~ ~ ~|~ ~ ~ ~|
 [B,,E][B,,D][B,,D][B,,B,] | [E,B,][E,B,][E,B,][E,B,] | [B,,B,]2 [B,,B,]>[B,,B,] [B,,B,]4 | %5
w: ~ ~ ~ ~|~ ~ ~ ~|~ ~ ~ ~|
 [E,G,]2 [E,B,]>[E,B,] [E,E][E,E] [E,E]2 | [A,,E]2 [A,,C]>[A,,E] [E,E]4 | %7
w: ~ ~ ~ ~ ~ ~|~ ~ ~ ~|
 [B,,E][B,,D][B,,D][B,,D] [E,B,][E,B,][E,B,][E,B,] | [B,,B,]2 [B,,A,]>[B,,B,] [E,G,]4 |: %9
w: ~ ~ ~ ~ ~ ~ ~ ~|~ ~ ~ ~|
 [A,,A,]>[A,,A,] [A,,A,][A,,A,] [A,,A,][A,,A,] z2 | [E,G,]>[E,G,] [E,G,][E,G,] E,E, z2 | %11
w: Where He leads I’ll fol- low,|Where He leads I’ll fol- low,|
 [B,,F,][B,,F,] [B,,F,]>[B,,F,] [B,,F,]2 [B,,B,]2 | [E,B,][E,B,] [E,B,]>[E,B,] [E,B,]2 z2 :| %13
w: all the way, yes, fol- low|all the way. * *|
 [B,,F,][B,,B,][B,,B,][B,,B,] [B,,B,]2 [B,,A,]2 | [E,G,]6 z2 |] %15
w: ||
V:4
 x8 | x8 | x4 | x4 | x8 | x8 | x8 | x8 | x8 |: x8 | x4 E,E, x2 | x8 | x8 :| x8 | x8 |] %15
w: ||||||||||Fol- low|||||

